icons/outline/border-style-2.svg

<!--
category: Design
tags: [google, excel, sheets]
version: "1.41"
unicode: "ef22"
-->
<svg
  xmlns="http://www.w3.org/2000/svg"
  width="24"
  height="24"
  viewBox="0 0 24 24"
  fill="none"
  stroke="currentColor"
  stroke-width="2"
  stroke-linecap="round"
  stroke-linejoin="round"
>
  <path d="M4 18v.01m4 -.01v.01m4 -.01v.01m4 -.01v.01m4 -.01v.01m-2 -6.01h2m-9 0h2m-9 0h2m-2 -6h16" />
</svg>

<!--
category: Design
tags: [google, excel, sheets]
version: "1.41"
unicode: "ef22"
-->
<svg
  xmlns="http://www.w3.org/2000/svg"
  width="24"
  height="24"
  viewBox="0 0 24 24"
  fill="none"
  stroke="currentColor"
  stroke-width="2"
  stroke-linecap="round"
  stroke-linejoin="round"
>
    <path d="M4 18v.01M8 18v.01M12 18v.01M16 18v.01M20 18v.01M18 12h2M11 12h2M4 12h2M4 6h16" />
</svg>
